svg/currency_btc.svg

<svg xmlns="http://www.w3.org/2000/svg" viewBox="0 0 24 24"><path d="M6 4h2V2h2v2h2V2h2v2.03c2.25.25 4 2.15 4 4.47 0 1.3-.55 2.5-1.44 3.3a4.5 4.5 0 0 1 1.94 3.7c0 2.5-2 4.5-4.5 4.5v2h-2v-2h-2v2H8v-2H6l.5-2H8V6H6zm4 9v5h4a2.5 2.5 0 0 0 2.5-2.5A2.5 2.5 0 0 0 14 13zm0-7v5h3.5A2.5 2.5 0 0 0 16 8.5 2.5 2.5 0 0 0 13.5 6z"/></svg>

<?xml version="1.0" encoding="UTF-8"?><!DOCTYPE svg PUBLIC "-//W3C//DTD SVG 1.1//EN" "http://www.w3.org/Graphics/SVG/1.1/DTD/svg11.dtd"><svg xmlns="http://www.w3.org/2000/svg" xmlns:xlink="http://www.w3.org/1999/xlink" version="1.1" id="mdi-currency-btc" width="24" height="24" viewBox="0 0 24 24"><path d="M6,4H8V2H10V4H12V2H14V4.03C16.25,4.28 18,6.18 18,8.5C18,9.8 17.45,11 16.56,11.8C17.73,12.61 18.5,13.97 18.5,15.5C18.5,18 16.5,20 14,20V22H12V20H10V22H8V20H6L6.5,18H8V6H6V4M10,13V18H14A2.5,2.5 0 0,0 16.5,15.5A2.5,2.5 0 0,0 14,13H10M10,6V11H13.5A2.5,2.5 0 0,0 16,8.5A2.5,2.5 0 0,0 13.5,6H13.5L10,6Z" /></svg>
